X: 1309
T: Roll Her on the Mountain
R:Reel
N:Collected by J. O'Neill
B:O'Neill's 1309
Z:Transcribed by Trish O'Neil
M:C|
L:1/8
K:D
A2FAA2FD|B2B(A Bc)dB|A2FA (DF)AF|GABc dfdB|
A2FAA2FD|B2B(A Bc)dB|A2FA (dB)AF|GBAGF2D2||
d2d(f ed)cB|(ABc)d (efg)e|d2d(f ed)cA|BGFGTE2D2|
d2d(f ed)cB|ABcd efge|(3fga (3fga gece|dBAFTE2D2|]


